icons/Buildings/home-wifi-fill.svg

<svg viewBox="0 0 24 24" xmlns="http://www.w3.org/2000/svg"><path d="M20 20.0001C20 20.5524 19.5523 21.0001 19 21.0001H5C4.44772 21.0001 4 20.5524 4 20.0001V11.0001L1 11.0001L11.3273 1.61162C11.7087 1.26488 12.2913 1.26488 12.6727 1.61162L23 11.0001L20 11.0001V20.0001ZM7 11.0001V13.0001C9.76142 13.0001 12 15.2387 12 18.0001H14C14 14.1341 10.866 11.0001 7 11.0001ZM7 15.0001V18.0001H10C10 16.3432 8.65685 15.0001 7 15.0001Z"/></svg>

<svg xmlns="http://www.w3.org/2000/svg" viewBox="0 0 24 24">
    <g>
        <path fill="none" d="M0 0h24v24H0z"/>
        <path d="M20 20a1 1 0 0 1-1 1H5a1 1 0 0 1-1-1v-9H1l10.327-9.388a1 1 0 0 1 1.346 0L23 11h-3v9zM7 11v2a5 5 0 0 1 5 5h2a7 7 0 0 0-7-7zm0 4v3h3a3 3 0 0 0-3-3z"/>
    </g>
</svg>
